icons/media/forward-24.svg

<svg width="24" height="24" viewBox="0 0 24 24" fill="none" xmlns="http://www.w3.org/2000/svg">
<path fill-rule="evenodd" clip-rule="evenodd" d="M1.4174 4.07779C1.67303 3.95131 1.97828 3.98076 2.205 4.15379L11.705 11.4038C11.8909 11.5457 12 11.7661 12 12C12 12.2339 11.8909 12.4543 11.705 12.5962L2.205 19.8462C1.97828 20.0192 1.67303 20.0487 1.4174 19.9222C1.16177 19.7957 1 19.5352 1 19.25V4.75001C1 4.4648 1.16177 4.20427 1.4174 4.07779ZM2.5 17.7342L10.0138 12L2.5 6.26583V17.7342Z" fill="black"/>
<path fill-rule="evenodd" clip-rule="evenodd" d="M12 12V19.25C12 19.5352 12.1618 19.7957 12.4174 19.9222C12.673 20.0487 12.9783 20.0192 13.205 19.8462L22.705 12.5962C22.8909 12.4543 23 12.2339 23 12C23 11.7661 22.8909 11.5457 22.705 11.4038L13.205 4.15379C12.9783 3.98076 12.673 3.95131 12.4174 4.07779C12.1618 4.20427 12 4.4648 12 4.75001V12ZM13.5 17.7342L21.0138 12L13.5 6.26583V17.7342Z" fill="black"/>
</svg>

<svg xmlns="http://www.w3.org/2000/svg" width="24" height="24"><path fill-rule="evenodd" d="M1.417 4.078a.75.75 0 01.788.076l9.5 7.25a.75.75 0 010 1.192l-9.5 7.25A.75.75 0 011 19.25V4.75a.75.75 0 01.417-.672zM2.5 17.734L10.014 12 2.5 6.266v11.468z"/><path fill-rule="evenodd" d="M12 12v7.25a.75.75 0 001.205.596l9.5-7.25a.75.75 0 000-1.192l-9.5-7.25A.75.75 0 0012 4.75V12zm1.5 5.734L21.014 12 13.5 6.266v11.468z"/></svg>
